themes/x.svg

<svg height="96mm" viewBox="0 0 96 96" width="96mm" xmlns="http://www.w3.org/2000/svg"><path d="m25.197266 0c-13.959056 0-25.197266 11.238208-25.197266 25.197266v133.542964h105.82617c4.18772 0 7.56055 3.37088 7.56055 7.5586v30.23633c0 4.18771-3.37283 7.55859-7.56055 7.55859h-105.82617v133.54492c0 13.95907 11.23821 25.19531 25.197266 25.19531h133.542964v-105.82617c0-4.18771 3.37088-7.55859 7.5586-7.55859h30.23633c4.18771 0 7.55859 3.37088 7.55859 7.55859v105.82617h133.54492c13.95907 0 25.19531-11.23624 25.19531-25.19531v-133.54492h-105.82617c-4.18771 0-7.55859-3.37088-7.55859-7.55859v-30.23633c0-4.18772 3.37088-7.5586 7.55859-7.5586h105.82617v-133.542964c0-13.959058-11.23624-25.197266-25.19531-25.197266h-133.54492v105.82617c0 4.18772-3.37088 7.56055-7.55859 7.56055h-30.23633c-4.18772 0-7.5586-3.37283-7.5586-7.56055v-105.82617z" fill="#b22400" stroke-width="2.4189" transform="matrix(.26458332347 0 0 .26458332347 -.00000018644 -.00000008274)"/></svg>

<?xml version="1.0" encoding="UTF-8" standalone="no"?>
<svg
   xmlns:dc="http://purl.org/dc/elements/1.1/"
   xmlns:cc="http://creativecommons.org/ns#"
   xmlns:rdf="http://www.w3.org/1999/02/22-rdf-syntax-ns#"
   xmlns:svg="http://www.w3.org/2000/svg"
   xmlns="http://www.w3.org/2000/svg"
   xmlns:sodipodi="http://sodipodi.sourceforge.net/DTD/sodipodi-0.dtd"
   xmlns:inkscape="http://www.inkscape.org/namespaces/inkscape"
   width="96mm"
   height="96mm"
   version="1.1"
   viewBox="0 0 96 96"
   id="svg849"
   sodipodi:docname="xx.svg"
   inkscape:version="1.0.1 (c497b03c, 2020-09-10)">
  <metadata
     id="metadata855">
    <rdf:RDF>
      <cc:Work
         rdf:about="">
        <dc:format>image/svg+xml</dc:format>
        <dc:type
           rdf:resource="http://purl.org/dc/dcmitype/StillImage" />
        <dc:title></dc:title>
      </cc:Work>
    </rdf:RDF>
  </metadata>
  <defs
     id="defs853" />
  <sodipodi:namedview
     pagecolor="#ffffff"
     bordercolor="#666666"
     borderopacity="1"
     objecttolerance="10"
     gridtolerance="10"
     guidetolerance="10"
     inkscape:pageopacity="0"
     inkscape:pageshadow="2"
     inkscape:window-width="2496"
     inkscape:window-height="1387"
     id="namedview851"
     showgrid="false"
     fit-margin-top="0"
     fit-margin-left="0"
     fit-margin-right="0"
     fit-margin-bottom="0"
     inkscape:zoom="1.2964583"
     inkscape:cx="283.46457"
     inkscape:cy="283.46457"
     inkscape:window-x="64"
     inkscape:window-y="25"
     inkscape:window-maximized="1"
     inkscape:current-layer="svg849"
     inkscape:document-rotation="0" />
  <g
     transform="matrix(0.64000002,0,0,0.64000002,-14.51392,-49.832321)"
     id="g847">
    <path
       id="rect845"
       style="fill:#b22400;stroke-width:2.4189"
       d="M 25.197266 0 C 11.23821 0 0 11.238208 0 25.197266 L 0 158.74023 L 105.82617 158.74023 C 110.01389 158.74023 113.38672 162.11111 113.38672 166.29883 L 113.38672 196.53516 C 113.38672 200.72287 110.01389 204.09375 105.82617 204.09375 L 0 204.09375 L 0 337.63867 C 0 351.59774 11.23821 362.83398 25.197266 362.83398 L 158.74023 362.83398 L 158.74023 257.00781 C 158.74023 252.8201 162.11111 249.44922 166.29883 249.44922 L 196.53516 249.44922 C 200.72287 249.44922 204.09375 252.8201 204.09375 257.00781 L 204.09375 362.83398 L 337.63867 362.83398 C 351.59774 362.83398 362.83398 351.59774 362.83398 337.63867 L 362.83398 204.09375 L 257.00781 204.09375 C 252.8201 204.09375 249.44922 200.72287 249.44922 196.53516 L 249.44922 166.29883 C 249.44922 162.11111 252.8201 158.74023 257.00781 158.74023 L 362.83398 158.74023 L 362.83398 25.197266 C 362.83398 11.238208 351.59774 -2.8421709e-14 337.63867 0 L 204.09375 0 L 204.09375 105.82617 C 204.09375 110.01389 200.72287 113.38672 196.53516 113.38672 L 166.29883 113.38672 C 162.11111 113.38672 158.74023 110.01389 158.74023 105.82617 L 158.74023 0 L 25.197266 0 z "
       transform="matrix(0.41341143,0,0,0.41341143,22.677999,77.862999)" />
  </g>
</svg>
